X:1
T: the Supple Dancer   #2
%S:s:4 b:11(6+5)
M:C|
L:1/8
B:O'Neill's 1850 #1646
N:"collected by J. O'Neill"
K:G
d>c |:\
(3BdB G>B c>AF>A | a>fg>e d>cB>A |\
[1,3 (3BdB G>B c>BA>G | F>Ad>f e>dc>A :|\
[2,4 (3BdB (3GAB c>AF>A | G2B2 G2 :|
|: B>c |\
d2g2 f2e2 | (3ded (3cBA G2F2 | Eedc BAGF |\
[1,3 AGFE D2 :|[2,4 A2G2 G2 :|
